src/icons/svg/qq.svg

<?xml version="1.0" standalone="no"?><!DOCTYPE svg PUBLIC "-//W3C//DTD SVG 1.1//EN" "http://www.w3.org/Graphics/SVG/1.1/DTD/svg11.dtd"><svg t="1628514593466" class="icon" viewBox="0 0 1024 1024" version="1.1" xmlns="http://www.w3.org/2000/svg" p-id="7414" xmlns:xlink="http://www.w3.org/1999/xlink" width="128" height="128"><defs><style type="text/css">@font-face { font-family: element-icons; src: url("chrome-extension://dkbiiofameebehokbgjmdcholafphbnl/fonts/element-icons.woff") format("woff"), url("chrome-extension://dkbiiofameebehokbgjmdcholafphbnl/fonts/element-icons.ttf ") format("truetype"); }
</style></defs><path d="M934.95036 655.200446 932.655084 638.959553 929.779593 623.13003 927.502737 615.029538 925.299559 606.368274 922.330948 598.117356 919.343917 588.971046 915.889235 580.308759 912.139841 571.386552 905.420813 556.900629 899.50201 544.094976 893.547391 532.671809 888.394021 522.031471 882.478288 512.324388 878.072955 503.402181 868.888781 490.11148 857.258906 472.415446 854.608543 468.046952 853.694731 466.142579 853.694731 464.687438 855.633896 458.713376 858.323145 453.41265 860.63684 442.883853 861.963045 437.432701 861.963045 431.834192 862.634334 427.316296 862.634334 422.798399 861.963045 417.610236 861.198635 413.353282 859.480504 404.728858 857.258906 396.329561 855.242993 388.601552 852.10656 381.172349 848.522941 374.900505 845.724199 369.039008 842.568323 363.476315 837.696362 355.225397 835.867714 352.313068 835.343781 349.774245 833.048505 333.796342 831.629179 323.305407 829.947887 310.275649 827.373249 296.835546 823.323003 281.379529 821.026704 272.756127 819.234895 265.438465 816.660256 256.926604 813.821605 247.853971 810.985 239.491513 807.324634 230.456742 799.91385 213.021651 795.509541 204.771757 790.189372 195.326641 785.187451 187.18624 780.258185 178.00309 773.202489 169.528068 767.246847 161.27715 760.004909 152.765289 752.630964 145.038304 745.203808 137.570215 736.392118 129.842207 731.743238 127.043465 727.376791 123.196857 717.856973 116.439966 706.842105 109.085464 695.60518 102.477976 684.031587 96.467075 671.376359 91.015923 659.502937 85.826737 647.108652 81.309864 633.555985 77.57582 621.198539 74.253144 608.001983 71.341838 595.513554 68.280106 582.092893 66.823941 568.893266 65.219397 555.770388 63.501266 516.403798 63.501266 503.095701 64.24828 490.587829 66.002226 478.101447 67.720358 465.42473 69.847811 452.918905 72.275093 441.046506 75.1864 429.138292 79.031984 418.123424 82.914408 407.10958 86.61059 395.984195 92.061742 385.549541 96.467075 376.274294 101.805664 366.62247 107.778702 357.718683 114.013707 348.926436 121.069403 341.683475 127.603213 330.335009 138.354068 320.945151 148.359956 311.9288 158.068062 303.621601 167.923524 295.875173 178.00309 289.062 187.859575 282.453489 197.715037 279.39278 202.082508 276.555152 207.42212 270.358009 216.717833 265.448186 226.051409 261.079692 234.824213 257.291412 244.157789 253.575788 252.670673 250.458797 260.622786 247.620146 269.134647 244.747725 277.011035 240.903164 291.236014 238.101351 304.937061 236.532623 316.361251 234.984361 326.217736 234.984361 345.369935 232.297159 348.31808 229.813594 352.313068 227.889779 355.896686 226.228953 359.743294 224.138338 368.142591 221.861482 375.833761 221.057163 382.741078 220.537324 387.8177 220.537324 393.230989 215.253994 400.99686 211.50153 408.723845 208.663902 416.154072 206.554868 422.798399 204.950324 429.182806 203.381595 435.192683 203.381595 450.462458 204.278012 454.196503 205.584774 460.991256 207.226157 466.142579 204.278012 468.457298 196.006628 474.65444 185.051111 484.772892 178.294221 490.783793 171.740968 496.64529 167.224094 501.311567 163.491073 505.418095 155.500075 514.042519 147.904073 522.703783 141.948431 530.170848 134.837476 540.922726 128.024304 550.628786 121.341091 561.418526 115.630019 571.386552 110.961696 582.025866 105.958752 591.882352 102.318852 601.589434 98.47429 611.706863 95.618243 621.525486 92.800058 631.641891 90.334913 640.452557 88.915587 649.861858 87.404164 658.671501 86.080006 667.184385 85.296153 683.797761 85.296153 706.160071 86.080006 712.954825 88.17062 724.489532 88.915587 729.568201 90.334913 734.720547 92.015182 739.685629 93.603353 743.156684 96.121709 749.542114 98.083387 750.847853 99.277586 753.536079 100.77059 754.169505 102.318852 754.169505 108.909967 753.536079 115.630019 751.781108 121.341091 749.542114 127.257847 745.659691 132.671137 742.03821 137.58096 737.408773 142.86429 732.517369 147.381164 727.439724 151.619698 721.69079 155.500075 716.539466 159.123602 712.283536 161.419901 707.35427 165.843654 699.215916 167.224094 695.931103 168.007947 693.91519 168.381453 691.63731 169.444669 689.770799 170.211125 689.398316 171.740968 688.576601 172.656827 688.576601 173.046706 689.398316 173.814186 689.398316 174.578596 689.770799 177.080579 700.860369 179.730942 709.74369 183.370843 719.077266 186.992323 727.439724 190.054055 735.840044 194.756147 743.156684 198.229249 750.847853 202.074833 757.904573 206.554868 764.027014 209.952244 769.888512 218.985991 780.789793 226.864426 790.534737 234.424612 798.076504 241.945913 804.870234 248.405021 810.17096 258.092661 818.833247 261.956665 820.699758 263.264451 822.565245 263.264451 823.461661 262.368034 824.283376 261.956665 824.283376 260.034896 824.954665 252.774539 825.478598 246.054487 826.410829 240.380254 827.195705 234.424612 828.538283 229.272265 830.145897 224.138338 831.714625 219.621465 834.138838 216.018404 836.378855 211.50153 837.871859 208.663902 840.22444 205.584774 842.128813 202.316334 844.780199 198.229249 849.931522 196.642101 852.357781 194.756147 854.486258 192.162066 859.93741 190.725344 864.454284 189.008236 868.971158 188.654172 872.967168 188.654172 880.43321 187.906136 884.128369 187.906136 887.900276 186.992323 891.632273 186.992323 894.917086 187.906136 898.501728 188.654172 901.713886 190.725344 907.948891 192.162066 910.897036 193.991738 913.807319 196.006628 916.722718 198.229249 919.297356 201.158974 922.171824 203.381595 924.561243 209.952244 929.527348 216.54029 933.632853 224.138338 937.365874 232.297159 940.688549 240.903164 944.274214 250.458797 946.55107 260.034896 949.724343 270.358009 951.888636 280.64326 953.456341 291.226293 955.062931 302.184879 956.630636 323.801199 958.946378 346.088808 959.318862 385.549541 959.318862 395.200342 958.946378 403.508565 957.974237 411.459654 957.300902 418.983002 956.630636 430.964894 954.241216 439.647647 951.888636 447.879122 949.724343 463.072149 943.338912 469.942627 940.688549 476.550115 937.365874 487.378741 931.243433 497.176898 926.31519 504.40144 921.648914 509.683746 916.722718 517.972527 917.655973 524.37433 918.364101 537.030581 919.297356 547.989167 919.297356 551.870568 920.080186 555.770388 921.648914 561.968553 923.963633 568.893266 926.31519 582.092893 930.422741 595.513554 935.387823 608.654852 939.232384 621.834013 941.883771 635.349841 945.355849 649.311831 947.334923 662.545226 948.827927 675.892209 950.693414 688.286494 951.888636 701.597661 952.673511 738.464313 952.673511 750.372527 951.216323 761.965563 950.693414 773.202489 948.827927 783.526625 946.55107 793.829272 944.274214 803.759435 941.883771 807.848567 940.688549 812.421722 939.232384 821.026704 935.760307 828.697407 932.214551 835.867714 928.48153 842.568323 924.561243 848.522941 920.080186 850.875522 917.655973 853.694731 914.370137 857.258906 909.963781 861.198635 904.512628 862.634334 901.713886 863.269807 899.434983 864.894817 896.523677 865.566106 893.313565 865.566106 890.252857 866.350982 887.227963 865.566106 882.672204 864.894817 878.827643 863.269807 874.311793 861.963045 870.575702 859.480504 866.058828 856.568175 861.953324 853.694731 858.369705 849.8471 855.269088 841.93285 848.363817 833.048505 841.717444 824.106856 836.378855 814.716998 830.92975 793.15696 820.288388 788.005636 817.116139 786.605753 815.622112 785.689894 814.688857 796.03245 804.198945 800.5483 799.008736 804.264948 794.228873 811.50791 783.702122 818.337455 772.912381 824.106856 763.355725 829.613266 754.169505 836.893067 735.840044 842.568323 720.532407 846.358649 709.74369 848.522941 706.160071 849.8471 703.247742 852.10656 701.493795 853.022419 701.493795 853.694731 701.866279 859.219561 712.954825 864.1652 723.595162 867.637278 729.568201 871.240339 734.720547 874.805538 741.141794 879.38074 747.376799 883.242697 751.781108 885.558439 754.169505 887.871111 756.299005 889.982192 757.904573 891.997082 759.3986 896.383996 761.637594 898.718157 762.42247 902.301775 762.42247 904.653333 761.637594 907.528823 760.181429 910.737912 758.688425 913.390321 756.299005 915.889235 753.536079 918.708444 750.064001 920.892179 747.376799 923.394163 743.156684 925.299559 739.685629 927.502737 734.720547 928.677493 730.612996 931.887604 720.532407 933.960823 709.370183 935.453826 696.975898 936.499645 689.770799 936.499645 669.572782Z" p-id="7415"></path></svg>

<svg class="icon" viewBox="0 0 1024 1024" xmlns="http://www.w3.org/2000/svg" width="128" height="128"><defs><style>@font-face{font-family:element-icons;src:url(chrome-extension://dkbiiofameebehokbgjmdcholafphbnl/fonts/element-icons.woff) format(&quot;woff&quot;),url(&quot;chrome-extension://dkbiiofameebehokbgjmdcholafphbnl/fonts/element-icons.ttf &quot;) format(&quot;truetype&quot;)}</style></defs><path d="M934.95 655.2l-2.295-16.24-2.875-15.83-2.277-8.1-2.203-8.662-2.97-8.25-2.986-9.147-3.455-8.662-3.75-8.922-6.718-14.486-5.919-12.806-5.955-11.423-5.153-10.64-5.916-9.708-4.405-8.922-9.184-13.29-11.63-17.697-2.65-4.368-.914-1.904v-1.456l1.939-5.974 2.69-5.3 2.313-10.53 1.326-5.45v-5.599l.671-4.518v-4.518l-.671-5.188-.764-4.257-1.718-8.624-2.222-8.4-2.016-7.727-3.136-7.43-3.584-6.271-2.799-5.862-3.156-5.563-4.872-8.25-1.828-2.913-.524-2.539-2.295-15.978-1.42-10.49-1.681-13.03-2.575-13.44-4.05-15.456-2.296-8.624-1.792-7.318-2.575-8.511-2.838-9.073-2.837-8.362-3.66-9.035-7.411-17.435-4.404-8.25-5.32-9.445-5.003-8.14-4.929-9.184-7.056-8.475-5.955-8.25-7.242-8.513-7.374-7.727-7.427-7.468-8.812-7.728-4.649-2.799-4.366-3.846-9.52-6.757-11.015-7.355-11.237-6.607-11.573-6.01-12.656-5.452-11.873-5.19-12.394-4.516-13.553-3.734-12.357-3.323-13.197-2.911-12.488-3.062-13.421-1.456-13.2-1.605-13.123-1.718h-39.366l-13.308.747-12.508 1.754L478.1 67.72l-12.676 2.128-12.506 2.427-11.872 2.911-11.909 3.846-11.015 3.882-11.013 3.697-11.126 5.45-10.434 4.406-9.276 5.339-9.652 5.973-8.903 6.235-8.793 7.055-7.243 6.534-11.348 10.751-9.39 10.006-9.016 9.708-8.307 9.856-7.747 10.08-6.813 9.856-6.609 9.855-3.06 4.368-2.838 5.34-6.197 9.295-4.91 9.333-4.368 8.773-3.789 9.334-3.715 8.513-3.117 7.952-2.839 8.512-2.872 7.876-3.845 14.225-2.802 13.701-1.568 11.424-1.549 9.857v19.152l-2.687 2.948-2.483 3.995-1.924 3.584-1.661 3.846-2.09 8.4-2.278 7.69-.804 6.908-.52 5.077v5.413l-5.283 7.766-3.752 7.727-2.838 7.43-2.11 6.644-1.604 6.385-1.568 6.01v15.27l.896 3.734 1.307 6.794 1.641 5.152-2.948 2.314-8.271 6.197-10.956 10.119-6.757 6.01-6.553 5.862-4.517 4.667-3.733 4.106-7.99 8.625-7.597 8.66-5.956 7.468-7.11 10.752-6.814 9.706-6.683 10.79-5.711 9.968-4.668 10.639-5.003 9.856-3.64 9.707-3.845 10.118-2.856 9.818-2.818 10.117-2.465 8.81-1.42 9.41-1.51 8.81-1.325 8.512-.784 16.614v22.362l.784 6.795 2.09 11.535.746 5.078 1.419 5.153 1.68 4.965 1.588 3.47 2.519 6.386 1.961 1.306 1.195 2.688 1.493.634h1.548l6.591-.634 6.72-1.755 5.711-2.239 5.917-3.882 5.413-3.622 4.91-4.63 5.283-4.89 4.517-5.078 4.239-5.75 3.88-5.15 3.624-4.256 2.296-4.93 4.424-8.138 1.38-3.285.784-2.016.373-2.278 1.064-1.866.766-.373 1.53-.821h.916l.39.821h.767l.765.373 2.502 11.09 2.65 8.883 3.64 9.333 3.621 8.363 3.062 8.4 4.702 7.317 3.473 7.69 3.846 7.058 4.48 6.122 3.397 5.862 9.034 10.9 7.878 9.746 7.56 7.542 7.522 6.793 6.459 5.301 9.688 8.662 3.864 1.867 1.307 1.865v.897l-.896.821h-.411l-1.922.672-7.26.524-6.72.932-5.675.785-5.955 1.342-5.153 1.608-5.134 1.569-4.517 2.424-3.603 2.24-4.516 1.493-2.838 2.352-3.08 1.905-3.268 2.651-4.087 5.152-1.587 2.426-1.886 2.128-2.594 5.451-1.437 4.517-1.717 4.517-.354 3.996v7.466l-.748 3.695v3.772l-.914 3.732v3.285l.914 3.585.748 3.212 2.071 6.235 1.437 2.948 1.83 2.91 2.015 2.916 2.222 2.574 2.93 2.875 2.223 2.39 6.57 4.965 6.588 4.106 7.598 3.733 8.16 3.323 8.605 3.585 9.556 2.277 9.576 3.173 10.323 2.165 10.285 1.567 10.583 1.607 10.959 1.568 21.616 2.315 22.288.373h39.46l9.651-.373 8.309-.972 7.95-.673 7.524-.67 11.982-2.39 8.683-2.352 8.231-2.165 15.193-6.385 6.87-2.65 6.608-3.323 10.829-6.123 9.798-4.928 7.224-4.666 5.283-4.926 8.289.933 6.401.708 12.657.933h10.958l3.882.783 3.9 1.569 6.198 2.315 6.924 2.351 13.2 4.108 13.42 4.965 13.142 3.844 13.179 2.652 13.516 3.472 13.962 1.979 13.233 1.493 13.347 1.865 12.394 1.196 13.312.785h36.866l11.909-1.458 11.593-.523 11.236-1.865 10.325-2.277 10.302-2.277 9.93-2.39 4.09-1.195 4.573-1.457 8.605-3.472 7.67-3.545 7.17-3.733 6.701-3.92 5.955-4.482 2.353-2.424 2.819-3.286 3.564-4.406 3.94-5.451 1.435-2.8.636-2.278 1.625-2.911.671-3.21v-3.061l.785-3.025-.785-4.556-.671-3.844-1.625-4.516-1.307-3.736-2.482-4.517-2.913-4.106-2.873-3.583-3.848-3.1-7.914-6.906-8.884-6.647-8.942-5.338-9.39-5.45-21.56-10.64-5.151-3.173-1.4-1.494-.916-.933 10.342-10.49 4.516-5.19 3.717-4.78 7.243-10.527 6.83-10.79 5.769-9.556 5.506-9.186 7.28-18.33 5.675-15.308 3.79-10.788 2.165-3.584 1.324-2.912 2.26-1.754h.915l.673.372 5.525 11.089 4.945 10.64 3.472 5.973 3.603 5.153 3.566 6.42 4.575 6.236 3.862 4.404 2.315 2.389 2.313 2.129 2.111 1.606 2.015 1.494 4.387 2.239 2.334.784h3.584l2.351-.784 2.876-1.457 3.209-1.493 2.652-2.389 2.5-2.763 2.818-3.472 2.184-2.687 2.502-4.22 1.906-3.471 2.203-4.965 1.174-4.108 3.21-10.08 2.074-11.163 1.493-12.394 1.046-7.205v-20.198z"/></svg>
